X:1
T:Give Me Thine Heart!
T:Give Me Thine Heart!
T:Alonzo Judson Abbey
T:Eden Reeder Latta, 1887
T:Public Domain Courtesy of the Cyber Hymnal™
C:Alonzo Judson Abbey
Z:Public Domain
Z:Courtesy of the Cyber Hymnal™
%%score ( 1 2 ) ( 3 4 )
L:1/8
Q:1/4=97
M:4/4
K:F
V:1 treble 
V:2 treble 
V:3 bass 
V:4 bass 
V:1
 C | C[CF][CF][CF] [CF]3 [CF] | [CE]2 [CF]2 [EG]3 C | C[EG][EG][EG] [EG]3 [EG] | %4
w: 1.~Wher-|ev- er we may go, by|night or day, A|lov- ing voice with- in doth|
w: 2.~Slight|not that voice so kind, but|glad- ly hear, And|choose the Lord to- day, while|
w: 3.~We|may have chos- en long from|Him to roam, Yet|He will wel- come us, if|
 F2 [EG]2 [FA]3 [FA] | [FA][FA][FA][FA] [FA]3 [FA] | [EG]2 [FA]2 [EB]3 [EG] | %7
w: gent- ly say: “My|son, from ev- ery way of|sin de- part; Be|
w: He is near; He|will His par- doning love to|thee im- part, Oh,|
w: we but come; Oh,|may we not de- lay, but|quick- ly start— While|
 [FA][FA][FA][FB] [Fc]3 F | [CF]2 [CE]2 [CF]2 z ||"^Refrain" C | [CF]2 [DF]2 [CF]3 F | %11
w: Sa- tan’s slave no more, give|Me thy heart!”|||
w: hear Him call- ing still, “Give|Me thy heart!”|“Give|Me thy heart, give|
w: Je- sus say- eth still, “Give|Me thy heart!”|||
 [EG]2 [FG]2 [EG]3 [EG] | [FA][FA][FA][FB] [Fc]3 F | [CF]2 [CE]2 [CF]3 |] %14
w: |||
w: me thy heart; O|wea- ry, wan- dering child, give|Me thy heart.”|
w: |||
V:2
 C | C x7 | x7 C | C x7 | F2 x6 | x8 | x8 | x7 F | x7 || C | x7 F | x8 | x7 F | x7 |] %14
V:3
 [F,A,] | [F,A,][F,A,][F,A,][F,A,] [F,A,]3 [A,C] | [G,B,]2 [F,A,]2 [C,C]3 [C,C] | %3
 [C,C][C,C][C,C][C,C] [C,C]3 [C,B,] | [D,A,]2 [C,C]2 [F,C]3 [F,C] | %5
 [F,C][F,C][F,C][F,C] [F,C]3 [F,C] | [B,C]2 [A,C]2 [G,C]3 [C,C] | %7
 [F,C][F,C]F,[F,G,] [F,A,]3 [A,,C] | [C,A,]2 [C,G,]2 [F,,A,]2 z || [F,A,] | %10
 [F,A,]2 [B,,B,]2 [F,A,]3 [F,A,] | [C,C]2 [G,,=B,]2 [C,C]3 [C,C] | %12
 [F,C][F,C]F,[F,G,] [F,A,]3 [A,,C] | [C,A,]2 [C,G,]2 [F,,F,A,]3 |] %14
V:4
 x | x8 | x8 | x8 | x8 | x8 | x8 | x2 F, x5 | x7 || x | x8 | x8 | x2 F, x5 | x7 |] %14

